public/img/home/solutions/icon-solutions-01.svg

<svg fill="none" height="87" viewBox="0 0 109 87" width="109" xmlns="http://www.w3.org/2000/svg"><path d="m58.4403 76c-1.9577 0-3.9363-.1582-5.882-.4716-4.2744-.6875-8.1967-2.0845-11.6578-4.154-3.4271-2.0496-6.251-4.6684-8.3927-7.7816l-.4842-.7034-.8043.2945c-4.1343 1.5153-7.7635 2.2834-10.7845 2.2834-2.0166 0-3.7882-.3452-5.2657-1.0248l-.7772-.3572-.5392.6617c-.019.0228-.037.0467-.054.0696v.002c-1.0704 1.2606-2.6209 1.984-4.25843 1.984-1.95964 0-3.74023-1.004-4.76456-2.6865-1.19639-1.965-.99533-4.5668.49016-6.3259 1.06935-1.2666 2.62386-1.9939 4.26439-1.9939 1.95864 0 3.73924 1.0039 4.76354 2.6844.7123 1.1691.9493 2.6267.6492 3.9997l-.187.8567.7992.3691c1.3935.6438 3.059.9691 4.9497.9691 2.7539 0 6.0789-.6915 9.8812-2.0556l1.1834-.4248-.5812-1.1104c-3.2191-6.1509-3.5612-13.7653-.9643-21.4395 3.131-9.2532 10.1203-17.0994 18.6971-20.9917 14.6718-6.6593 36.945-7.6533 48.917-7.6533 1.3574 0 2.7099.0129 4.0189.0378.684.0129 1.3.1821 1.782.4885 1.167.7413 1.757 2.0795 1.502 3.4098-2.043 10.669-8.7174 37.2902-26.5172 54.0196-.2411.2268-.4952.4547-.7553.6755-4.7465 4.0466-11.7548 6.3678-19.2263 6.3678zm-12.5351-20.0505c-4.2174 2.5123-8.1997 4.5669-11.8369 6.1071l-1.2734.5392.8142 1.1124c4.2454 5.7957 11.0216 9.7009 19.0833 10.9964 1.8486.2975 3.7402.4477 5.6238.4477 7.6895 0 14.9899-2.5431 19.5304-6.8026 18.1159-17.0268 24.6874-45.3077 26.2704-53.5698.186-.9721-.236-1.6706-.505-1.9999-.457-.5612-1.137-.8915-1.866-.9064-1.189-.0239-2.4474-.0358-3.7408-.0358-12.044 0-34.4163.984-48.935 7.5726-2.7179 1.2338-5.2967 2.8824-7.6655 4.9012-4.8096 4.1003-8.5688 9.6392-10.5855 15.5971-2.5658 7.5806-2.1957 15.0538 1.0414 21.0445.011.0199.022.0398.034.0597l.4661.8606.9213-.386c3.6532-1.5293 7.6865-3.5958 11.9889-6.142l.9454-.5591-.5622-.9403c-2.0557-3.4386-2.923-7.5368-2.4428-11.5396.4831-4.0256 2.3187-7.8224 5.1687-10.6899.091-.0915.2-.1114.275-.1114.1271 0 .2481.0547.3302.1503.142.1641.127.4099-.0331.5721-5.5828 5.6414-6.6501 14.3434-2.5958 21.1609l.5742.9651.9563-.594c5.1817-3.2207 9.209-6.1668 11.1486-7.6364l.6302-.4776-.256-.7462c-.6232-1.8168-.2521-3.8435.9693-5.2922 1.0693-1.2676 2.6248-1.9949 4.2654-1.9949 1.9586 0 3.7392 1.0039 4.7635 2.6854 1.1974 1.9651.9964 4.5669-.4891 6.327-1.0694 1.2676-2.6239 1.9939-4.2644 1.9939-1.4705 0-2.853-.5622-3.8913-1.582l-.6762-.6646-.7593.5691c-1.9486 1.4606-5.9459 4.3659-10.8245 7.4184l-1.0904.6826.8483.9641c3.3361 3.7928 8.1647 5.9688 13.2494 5.9678 3.7092 0 7.2533-1.1343 10.2503-3.2794.099-.0706.1971-.0856.2621-.0856.071 0 .2051.0179.3111.1413.108.1254.11.2617.101.3323-.009.0786-.044.1881-.155.2687-3.146 2.2625-6.8703 3.4585-10.7715 3.4585-5.3998 0-10.5035-2.3302-14.0046-6.3917-.032-.0378-.063-.0756-.0931-.1134-.031-.0388-.063-.0786-.095-.1164l-.6022-.7224-.8092.4826zm-36.37094.6696c-.76024 0-1.51049.1841-2.16971.5333-1.44647.7651-2.38477 2.181-2.50882 3.7878-.12404 1.6059.5852 3.1481 1.89763 4.1251.79025.5881 1.77958.9124 2.78491.9124.76023 0 1.51053-.184 2.17073-.5333 1.4464-.7651 2.3848-2.1819 2.5088-3.7878s-.5852-3.1481-1.8966-4.1241c-.7913-.589-1.7816-.9134-2.78694-.9134zm55.11404-18.18c-.7603 0-1.5105.1841-2.1707.5333-1.4465.7661-2.3848 2.182-2.5088 3.7878-.1241 1.6069.5851 3.1481 1.8976 4.1252.7902.588 1.7796.9123 2.7849.9123.7602 0 1.5105-.185 2.1707-.5342 1.4465-.7662 2.3848-2.182 2.5088-3.7879.124-1.6058-.5852-3.148-1.8976-4.1251-.7903-.588-1.7796-.9114-2.7849-.9114z" fill="#fff"/></svg>

<svg width="109" height="87" viewBox="0 0 109 87" fill="none" xmlns="http://www.w3.org/2000/svg">
<path d="M58.4403 76C56.4826 76 54.504 75.8418 52.5583 75.5284C48.2839 74.8409 44.3616 73.4439 40.9005 71.3744C37.4734 69.3248 34.6495 66.706 32.5078 63.5928L32.0236 62.8894L31.2193 63.1839C27.085 64.6992 23.4558 65.4673 20.4348 65.4673C18.4182 65.4673 16.6466 65.1221 15.1691 64.4425L14.3919 64.0853L13.8527 64.747C13.8337 64.7698 13.8157 64.7937 13.7987 64.8166V64.8186C12.7283 66.0792 11.1778 66.8026 9.54027 66.8026C7.58063 66.8026 5.80004 65.7986 4.77571 64.1161C3.57932 62.1511 3.78038 59.5493 5.26587 57.7902C6.33522 56.5236 7.88973 55.7963 9.53026 55.7963C11.4889 55.7963 13.2695 56.8002 14.2938 58.4807C15.0061 59.6498 15.2431 61.1074 14.943 62.4804L14.756 63.3371L15.5552 63.7062C16.9487 64.35 18.6142 64.6753 20.5049 64.6753C23.2588 64.6753 26.5838 63.9838 30.3861 62.6197L31.5695 62.1949L30.9883 61.0845C27.7692 54.9336 27.4271 47.3192 30.024 39.645C33.155 30.3918 40.1443 22.5456 48.7211 18.6533C63.3929 11.994 85.6661 11 97.6381 11C98.9955 11 100.348 11.0129 101.657 11.0378C102.341 11.0507 102.957 11.2199 103.439 11.5263C104.606 12.2676 105.196 13.6058 104.941 14.9361C102.898 25.6051 96.2236 52.2263 78.4238 68.9557C78.1827 69.1825 77.9286 69.4104 77.6685 69.6312C72.922 73.6778 65.9137 75.999 58.4422 75.999L58.4403 76ZM45.9052 55.9495C41.6878 58.4618 37.7055 60.5164 34.0683 62.0566L32.7949 62.5958L33.6091 63.7082C37.8545 69.5039 44.6307 73.4091 52.6924 74.7046C54.541 75.0021 56.4326 75.1523 58.3162 75.1523C66.0057 75.1523 73.3061 72.6092 77.8466 68.3497C95.9625 51.3229 102.534 23.042 104.117 14.7799C104.303 13.8078 103.881 13.1093 103.612 12.78C103.155 12.2188 102.475 11.8885 101.746 11.8736C100.557 11.8497 99.2986 11.8378 98.0052 11.8378C85.9612 11.8378 63.5889 12.8218 49.0702 19.4104C46.3523 20.6442 43.7735 22.2928 41.4047 24.3116C36.5951 28.4119 32.8359 33.9508 30.8192 39.9087C28.2534 47.4893 28.6235 54.9625 31.8606 60.9532C31.8716 60.9731 31.8826 60.993 31.8946 61.0129L32.3607 61.8735L33.282 61.4875C36.9352 59.9582 40.9685 57.8917 45.2709 55.3455L46.2163 54.7864L45.6541 53.8461C43.5984 50.4075 42.7311 46.3093 43.2113 42.3065C43.6944 38.2809 45.53 34.4841 48.38 31.6166C48.471 31.5251 48.58 31.5052 48.655 31.5052C48.7821 31.5052 48.9031 31.5599 48.9852 31.6555C49.1272 31.8196 49.1122 32.0654 48.9521 32.2276C43.3693 37.869 42.302 46.571 46.3563 53.3885L46.9305 54.3536L47.8868 53.7596C53.0685 50.5389 57.0958 47.5928 59.0354 46.1232L59.6656 45.6456L59.4096 44.8994C58.7864 43.0826 59.1575 41.0559 60.3789 39.6072C61.4482 38.3396 63.0037 37.6123 64.6443 37.6123C66.6029 37.6123 68.3835 38.6162 69.4078 40.2977C70.6052 42.2628 70.4042 44.8646 68.9187 46.6247C67.8493 47.8923 66.2948 48.6186 64.6543 48.6186C63.1838 48.6186 61.8013 48.0564 60.763 47.0366L60.0868 46.372L59.3275 46.9411C57.3789 48.4017 53.3816 51.307 48.503 54.3595L47.4126 55.0421L48.2609 56.0062C51.597 59.799 56.4256 61.975 61.5103 61.974C65.2195 61.974 68.7636 60.8397 71.7606 58.6946C71.8596 58.624 71.9577 58.609 72.0227 58.609C72.0937 58.609 72.2278 58.6269 72.3338 58.7503C72.4418 58.8757 72.4438 59.012 72.4348 59.0826C72.4258 59.1612 72.3908 59.2707 72.2798 59.3513C69.1338 61.6138 65.4095 62.8098 61.5083 62.8098C56.1085 62.8098 51.0048 60.4796 47.5037 56.4181C47.4717 56.3803 47.4407 56.3425 47.4106 56.3047C47.3796 56.2659 47.3476 56.2261 47.3156 56.1883L46.7134 55.4659L45.9042 55.9485L45.9052 55.9495ZM9.53426 56.6191C8.77402 56.6191 8.02377 56.8032 7.36455 57.1524C5.91808 57.9175 4.97978 59.3334 4.85573 60.9402C4.73169 62.5461 5.44093 64.0883 6.75336 65.0653C7.54361 65.6534 8.53294 65.9777 9.53827 65.9777C10.2985 65.9777 11.0488 65.7937 11.709 65.4444C13.1554 64.6793 14.0938 63.2625 14.2178 61.6566C14.3418 60.0507 13.6326 58.5085 12.3212 57.5325C11.5299 56.9435 10.5396 56.6191 9.53426 56.6191ZM64.6483 38.4391C63.888 38.4391 63.1378 38.6232 62.4776 38.9724C61.0311 39.7385 60.0928 41.1544 59.9688 42.7602C59.8447 44.3671 60.5539 45.9083 61.8664 46.8854C62.6566 47.4734 63.646 47.7977 64.6513 47.7977C65.4115 47.7977 66.1618 47.6127 66.822 47.2635C68.2685 46.4973 69.2068 45.0815 69.3308 43.4756C69.4548 41.8698 68.7456 40.3276 67.4332 39.3505C66.6429 38.7625 65.6536 38.4391 64.6483 38.4391Z" fill="white"/>
</svg>
